X: 23
T:VALSE A YVES
M:3/4
L:1/8
Q:1/4=128
C:Yves BELOTTEAU
K:C
|:A3 G3|AGF EAB|cBc dcd|efe dcB|
A3 G3|AGF E3|cBc dEd|dEd e3/2 z/2 e:|!
|:f3 e3 |Bdf e3/2 z/2 c|ABd cdc|Bcd ecA|
a3 g3 |Bdf e3/2 z/2 c|ABf efe|dcB A3:|
